X:2309
T:Bundle and Go
M:6/8
L:1/8
C:Trad.
R:jig
N:Sharon plays this one as a set with next tune on her first album Both
N:tunes are originally banjo tunes.
H:This first one she learned from Charlie Piggott.
K:Em
E3 EDB,|+G3E3B,3+- +GEB,+AB|A3 ABA|d3 d2e|dBG GAB|AGE DEF|FGE FED|E3 EFD|
B,EE EDB,|+G3E3B,3+- +GEB,+AB|+A3F3D3+ ABA|d3 d2e|dBG GAB|AGE DEF|FGE FED|E3 E2A|
|:Bee edB|~d3 def|+e3B3+ edB|d2d d2e|dBG GAB|AGE DEF|FGE FED|1 ~E3 E2A:|2 ~E3 B,FD:|


